brandFactory_export/3.Masa/Telefonía fija_Teléfono_Llamar_3Masa.svg

<?xml version="1.0" encoding="UTF-8"?>
<svg width="24px" height="24px" viewBox="0 0 24 24" version="1.1" xmlns="http://www.w3.org/2000/svg" xmlns:xlink="http://www.w3.org/1999/xlink">
    <title>3.Masa/Telefonía fija_Teléfono_Llamar_3Masa</title>
    <g id="Symbols" stroke="none" stroke-width="1" fill="none" fill-rule="evenodd">
        <g id="3.Masa/Telefonía-fija_Teléfono_Llamar_3Masa" fill="#5CB615" fill-rule="nonzero">
            <path d="M4.7394958,0.0302521008 C5.75462185,0.0504201681 6.75966387,0.54789916 7.72436975,1.51260504 C8.08739496,1.86890756 8.40672269,2.27226891 8.66554622,2.71260504 C9.18319328,3.54621849 9.37142857,4.40672269 9.22352941,5.27058824 C9.07563025,6.13445378 8.59495798,6.97815126 7.78823529,7.78487395 C7.6,7.97310924 7.40168067,8.1512605 7.19327731,8.31596639 C7.11596639,8.45714286 7.16302521,8.90084034 7.78823529,9.81512605 C8.51092437,10.8705882 9.7210084,12.1176471 10.5680672,12.9647059 L10.6689076,13.0655462 C11.5159664,13.912605 12.7630252,15.1193277 13.8184874,15.8453782 C14.7294118,16.4705882 15.1764706,16.5176471 15.3176471,16.4403361 C15.4823529,16.2319328 15.6571429,16.0336134 15.8487395,15.8453782 C16.6554622,15.0386555 17.4991597,14.5579832 18.3630252,14.410084 C19.2268908,14.2621849 20.087395,14.4504202 20.9210084,14.9680672 C21.3613445,15.2302521 21.7613445,15.5462185 22.1210084,15.912605 C23.0857143,16.8773109 23.5831933,17.8823529 23.6033613,18.897479 C23.6235294,19.9495798 23.1294118,21.0151261 22.1310924,22.0571429 C21.7815126,22.4235294 21.2941176,22.7731092 21.1327731,22.8907563 L21.112605,22.9042017 C21.102521,22.9109244 21.092437,22.9176471 21.0823529,22.9277311 C20.4067227,23.3848739 19.5495798,23.6168067 18.5579832,23.6168067 C17.5193277,23.6168067 16.3294118,23.3613445 15.0487395,22.8504202 C12.4302521,21.805042 9.56302521,19.7714286 6.75966387,16.9680672 L6.75294118,16.9613445 L6.66218487,16.8739496 L6.65546218,16.8672269 C3.85210084,14.0638655 1.8184874,11.2 0.773109244,8.57815126 C-0.225210084,6.07058824 -0.248739496,3.92941176 0.705882353,2.54453782 L0.72605042,2.51428571 L0.739495798,2.49411765 C0.863865546,2.33613445 1.21344538,1.8487395 1.57983193,1.49915966 C2.62184874,0.504201681 3.68403361,0.0100840336 4.7394958,0.0302521008 Z" id="Telefonía-fija_Teléfono_Llamar_3Masa"></path>
        </g>
    </g>
</svg>

<svg width="24" height="24" viewBox="0 0 24 24" xmlns="http://www.w3.org/2000/svg"><path d="M4.74.03c1.015.02 2.02.518 2.984 1.483.363.356.683.76.942 1.2.517.833.705 1.694.558 2.558-.148.863-.629 1.707-1.436 2.514a6.848 6.848 0 01-.595.531c-.077.141-.03.585.595 1.5.723 1.055 1.933 2.302 2.78 3.149l.1.1c.848.848 2.095 2.054 3.15 2.78.911.626 1.358.673 1.5.595.164-.208.34-.406.53-.595.807-.806 1.651-1.287 2.515-1.435.864-.148 1.724.04 2.558.558.44.262.84.578 1.2.945.965.964 1.462 1.97 1.482 2.984.02 1.053-.474 2.118-1.472 3.16-.35.367-.837.716-.998.834l-.02.013a.185.185 0 00-.03.024c-.676.457-1.533.689-2.525.689-1.039 0-2.229-.256-3.51-.767-2.618-1.045-5.485-3.079-8.288-5.882l-.007-.007-.09-.087-.008-.007C3.852 14.064 1.818 11.2.773 8.578-.225 6.071-.249 3.93.706 2.545l.02-.03.013-.02c.125-.159.474-.646.84-.996C2.623.504 3.685.01 4.74.03z" fill="#5CB615" fill-rule="nonzero"/></svg>
